icons/1_Primary/RubyGems.org.svg

<svg xmlns="http://www.w3.org/2000/svg" viewBox="0 0 1024 1024">
   <circle cx="512" cy="512" r="512" style="fill:#d6422b"/>
   <path d="m512 218.318-256.156 146.84v293.684L512 805.682l256.156-146.84V365.158L512 218.318zm0 54.82 207.209 119.43v238.21L512 750.208 304.791 630.777V392.568L512 273.138zM409.21 411.17l.327.652-.326-.326-72.441 72.442 175.882 175.556 72.442-72.115 103.441-103.442-72.441-72.44v-.327H409.21z" style="fill:#fff"/>
</svg>

<svg width="1024" height="1024" viewBox="0 0 1024 1024" fill="none" xmlns="http://www.w3.org/2000/svg">
<g clip-path="url(#clip0_2_3372)">
<path d="M512 1024C794.77 1024 1024 794.77 1024 512C1024 229.23 794.77 0 512 0C229.23 0 0 229.23 0 512C0 794.77 229.23 1024 512 1024Z" fill="#FF837D"/>
<path d="M512 218.318L255.844 365.158V658.842L512 805.682L768.156 658.842V365.158L512 218.318ZM512 273.138L719.209 392.568V630.778L512 750.208L304.791 630.777V392.568L512 273.138ZM409.21 411.17L409.537 411.822L409.211 411.496L336.77 483.938L512.652 659.494L585.094 587.379L688.535 483.937L616.094 411.497V411.17H409.21Z" fill="white"/>
</g>
<defs>
<clipPath id="clip0_2_3372">
<rect width="1024" height="1024" fill="white"/>
</clipPath>
</defs>
</svg>
